X: 1
T: Fanfara Suceava [Em]
Z: 2006 John Chambers <jc:trillian.mit.edu>
D: "Veretski Pass" by Veretski Pass (Cookie Segelstein, Joshua Horowitz, Stuart Brotman)
M: 2/4
L: 1/8
K: Em
|::: "C"d e2 d | "D7"dc cB \
| "G"BA AG | B/A/G D2 |
| "B7"F/G/A- AG | BA GF \
|1,3 "Em"EF GA | B4 \
:|2,4 "Em"E4- | E4 :|
|::: "Em"G/F/E B,E | "B7"F/G/A- AG \
| BA GF |1,3 "Em"EG Be :|2,4 "Em"E4 :|
